icons/4_Outdated/Tumblr v1.svg

<svg width="1024" height="1024" fill="none" xmlns="http://www.w3.org/2000/svg"><g clip-path="url(#a)"><path d="M512 1024c282.77 0 512-229.23 512-512S794.77 0 512 0 0 229.23 0 512s229.23 512 512 512Z" fill="#54688C"/><path d="M566.7 768c-108.7 0-150-80.1-150-136.8V463.9h-51.5v-66.1c77.4-28 96.3-98 100.5-138 .3-2.7 2.5-3.8 3.7-3.8h75v130.4h102.4v77.5H543.9v159.4c.3 21.4 8 50.6 47.1 50.6h1.9c13.5-.4 31.7-4.4 41.3-8.9l24.7 73.1c-9.3 13.6-51.2 29.3-88.7 30h-3.8l.3-.1Z" fill="#fff"/></g><defs><clipPath id="a"><path fill="#fff" d="M0 0h1024v1024H0z"/></clipPath></defs></svg>

<svg width="1024" height="1024" viewBox="0 0 1024 1024" fill="none" xmlns="http://www.w3.org/2000/svg">
<g clip-path="url(#clip0_3_704)">
<path d="M512 1024C794.77 1024 1024 794.77 1024 512C1024 229.23 794.77 0 512 0C229.23 0 0 229.23 0 512C0 794.77 229.23 1024 512 1024Z" fill="#54688C"/>
<path d="M566.7 768C458 768 416.7 687.9 416.7 631.2V463.9H365.2V397.8C442.6 369.8 461.5 299.8 465.7 259.8C466 257.1 468.2 256 469.4 256H544.4V386.4H646.8V463.9H543.9V623.3C544.2 644.7 551.9 673.9 591 673.9H592.9C606.4 673.5 624.6 669.5 634.2 665L658.9 738.1C649.6 751.7 607.7 767.4 570.2 768.1H566.4L566.7 768Z" fill="white"/>
</g>
<defs>
<clipPath id="clip0_3_704">
<rect width="1024" height="1024" fill="white"/>
</clipPath>
</defs>
</svg>
